src/Icon/svgs/Star.svg

<svg width="24" height="24" viewBox="0 0 24 24" fill="none" xmlns="http://www.w3.org/2000/svg">
<path fill-rule="evenodd" clip-rule="evenodd" d="M7.67301 19.972C6.64301 20.514 5.96701 20.023 6.16301 18.876L6.99001 14.057L3.48901 10.644C2.65501 9.831 2.91401 9.037 4.06601 8.87L8.90301 8.167L11.068 3.783C11.583 2.739 12.418 2.739 12.933 3.783L15.097 8.167L19.935 8.87C21.087 9.037 21.345 9.831 20.512 10.644L17.011 14.057L17.837 18.876C18.033 20.023 17.359 20.514 16.328 19.972L12 17.697L7.67301 19.972Z" fill="#1B1C1D"/>
</svg>

<svg xmlns="http://www.w3.org/2000/svg" width="24" height="24" fill="none"  xmlns:v="https://vecta.io/nano"><path fill-rule="evenodd" d="M7.673 19.972c-1.03.542-1.706.051-1.51-1.096l.827-4.819-3.501-3.413c-.834-.813-.575-1.607.577-1.774l4.837-.703 2.165-4.384c.515-1.044 1.35-1.044 1.865 0l2.164 4.384 4.838.703c1.152.167 1.41.961.577 1.774l-3.501 3.413.826 4.819c.196 1.147-.478 1.638-1.509 1.096L12 17.697l-4.327 2.275z" fill="#1b1c1d"/></svg>
